X:1
T:Title
%%score { ( 1 3 ) | 2 }
L:1/8
M:4/4
K:Bb
V:1 treble nm="Grand Piano"
V:3 treble 
V:2 bass 
V:1
 z4 z2[Q:1/4=108] F2 | [Fd]4 [Ec]2 [DB]2 | [DF]6 D2 | F4 [=EG]4 | [EA]6 [EF]2 | %5
 [Ae]4 [A=B]2 [Ac]2 | [Ad]4 [Ac]4 | A2 G2 F2 E2 |[M:3/4] D6 |[M:1/4] F2 | %10
[M:4/4] [Fd]4 [Ec]2 [DB]2 | [DF]6 D2 | z4 B4 | G6 G2 | c2 =B2 c2 [Ge]2 | d2 c2 B2 c2 | B4 A4 | %17
[M:3/4] [DB]6 |[M:1/4] F2 |[M:4/4] z dd_d =dFGB | z eed e2 F2 | z eee ede=e |[M:3/4] f6 | %23
[M:1/4] d2 |[M:4/4] z eed eGAc | z dd_d =d2 [df]2 | [c=e]2 [Ge]2 [Ae]2 [Be]2 |[M:3/4] [ce]6 | %28
[M:1/4] F2 |[M:4/4] z dd_d =dFGB | z eed e2 F2 | z eee ede=e |[M:3/4] f6 |[M:1/4] F2 | %34
[M:4/4] z eed ecBG | z dd_d =d2 [Bd][_de] | [df]2 [Bd]2 [G=e]2 [A_e]2 |[M:3/4] [Bd]6 |] %38
V:2
 z4 z2 F,2 | [B,,F,]4 [B,,F,]2 [B,,F,]2 | [B,,B,]6 [B,,B,]2 | [D,B,D]4 [_D,B,]4 | [C,A,]6 [F,C]2 | %5
 [F,C]4 [F,D]2 [F,E]2 | [F,F]4 [F,E]4 | [F,CE]2 [F,B,E]2 [F,A,C]2 [F,A,C]2 |[M:3/4] [B,,F,B,]6 | %9
[M:1/4] F,2 |[M:4/4] [B,,F,]4 [B,,F,]2 [B,,F,]2 | [B,,B,]6 [B,,B,]2 | [B,,B,]4 [D,B,]4 | %13
 [E,B,E]6 [E,B,E]2 | [E,G,E]2 [E,G,E]2 [E,G,E]2 [C,C]2 | [F,B,F]2 [^F,A,E]2 [G,D]2 [E,G,E]2 | %16
 [F,D]4 [F,CE]4 |[M:3/4] [B,,B,]6 |[M:1/4] z2 |[M:4/4] z [B,,B,][B,,B,][B,,B,] .[B,,B,]2 z2 | %20
 z [F,C][F,C][F,C] [F,C]2 z2 | z [F,C][F,C][F,C] [F,C][K:treble]=Bc_d | %22
[M:3/4] d[B,D][K:bass] [B,D][B,D] [B,D]2 |[M:1/4] z2 |[M:4/4] z [E,C][E,C][E,C] .[E,C]2 z2 | %25
 z [B,,B,][B,,B,][B,,B,] [B,,B,]2 [B,,B,]2 | [C,G,]2 [C,C]2 [C,C]2 [C,C]2 |[M:3/4] [F,C]6 | %28
[M:1/4] z2 |[M:4/4] z [B,,B,][B,,B,][B,,B,] .[B,,B,]2 z2 | z [F,C][F,C][F,C] [F,C]2 z2 | %31
 z [F,C][F,C][F,C] [F,C][K:treble]=Bc_d |[M:3/4] d[B,D][K:bass] [B,D][B,D] [B,D]2 |[M:1/4] z2 | %34
[M:4/4] z [E,B,][E,B,][E,B,] .[E,B,]2 z2 | z [B,,B,][B,,B,][B,,B,] [B,,B,]2 [B,,B,][B,,B,] | %36
 [F,B,]2 [F,B,]2 [C,C]2 [F,C]2 |[M:3/4] [B,,B,]6 |] %38
V:3
 x8 | x8 | x8 | x8 | x8 | x8 | x8 | x8 |[M:3/4] x6 |[M:1/4] x2 |[M:4/4] x8 | x8 | [DF]4 F2 ^F2 | %13
 x8 | x8 | x8 | x8 |[M:3/4] x6 |[M:1/4] x2 |[M:4/4] B6 z2 | A6 z2 | c6 z2 |[M:3/4] z d BG F2 | %23
[M:1/4] x2 |[M:4/4] c6 z2 | B6 z2 | x8 |[M:3/4] x6 |[M:1/4] x2 |[M:4/4] B6 z2 | A6 z2 | c6 z2 | %32
[M:3/4] z d BG F2 |[M:1/4] x2 |[M:4/4] G6 z2 | F6 z2 | x8 |[M:3/4] x6 |] %38

